SVG_Azure_Grouped/Dynamics 365/Application Project Service Automation.svg

<?xml version="1.0" encoding="UTF-8" standalone="no"?>
<!-- Generated by Microsoft Visio, SVG Export Application Project Service Automation.svg Page-1 -->

<svg
   xmlns:dc="http://purl.org/dc/elements/1.1/"
   xmlns:cc="http://creativecommons.org/ns#"
   xmlns:rdf="http://www.w3.org/1999/02/22-rdf-syntax-ns#"
   xmlns:svg="http://www.w3.org/2000/svg"
   xmlns="http://www.w3.org/2000/svg"
   xmlns:sodipodi="http://sodipodi.sourceforge.net/DTD/sodipodi-0.dtd"
   xmlns:inkscape="http://www.inkscape.org/namespaces/inkscape"
   width="0.78745681in"
   height="0.74796927in"
   viewBox="0 0 56.696901 53.853731"
   xml:space="preserve"
   class="st6"
   version="1.1"
   id="svg55"
   sodipodi:docname="Application Project Service Automation.svg"
   style="font-size:12px;overflow:visible;color-interpolation-filters:sRGB;fill:none;fill-rule:evenodd;stroke-linecap:square;stroke-miterlimit:3"
   inkscape:version="0.92.5 (2060ec1f9f, 2020-04-08)"><metadata
   id="metadata59"><rdf:RDF><cc:Work
       rdf:about=""><dc:format>image/svg+xml</dc:format><dc:type
         rdf:resource="http://purl.org/dc/dcmitype/StillImage" /></cc:Work></rdf:RDF></metadata><sodipodi:namedview
   pagecolor="#ffffff"
   bordercolor="#666666"
   borderopacity="1"
   objecttolerance="10"
   gridtolerance="10"
   guidetolerance="10"
   inkscape:pageopacity="0"
   inkscape:pageshadow="2"
   inkscape:window-width="640"
   inkscape:window-height="480"
   id="namedview57"
   showgrid="false"
   inkscape:zoom="1.8773069"
   inkscape:cx="37.79526"
   inkscape:cy="17.496463"
   inkscape:window-x="0"
   inkscape:window-y="0"
   inkscape:window-maximized="0"
   inkscape:current-layer="svg55" />
	<style
   type="text/css"
   id="style2">
	<![CDATA[
		.st1 {fill:url(#grad0-6);stroke:none;stroke-linecap:butt;stroke-width:6.4099}
		.st2 {fill:url(#grad0-10);stroke:none;stroke-linecap:butt;stroke-width:6.4099}
		.st3 {fill:#000000;fill-opacity:0.32;stroke:none;stroke-linecap:butt;stroke-width:6.4099}
		.st4 {fill:#000000;fill-opacity:0.24;stroke:none;stroke-linecap:butt;stroke-width:6.4099}
		.st5 {fill:url(#grad0-18);stroke:none;stroke-linecap:butt;stroke-width:6.4099}
		.st6 {fill:none;fill-rule:evenodd;font-size:12px;overflow:visible;stroke-linecap:square;stroke-miterlimit:3}
	]]>
	</style>

	<defs
   id="Patterns_And_Gradients">
		<linearGradient
   id="grad0-6"
   x1="0"
   y1="79.509323"
   x2="27.700903"
   y2="79.509323"
   gradientTransform="scale(1.1371471,0.87939373)"
   gradientUnits="userSpaceOnUse">
			<stop
   offset="0"
   stop-color="#d83b01"
   stop-opacity="1"
   id="stop4" />
			<stop
   offset="1"
   stop-color="#ed7e43"
   stop-opacity="1"
   id="stop6" />
		</linearGradient>
		<linearGradient
   id="grad0-10"
   x1="0"
   y1="79.509323"
   x2="27.700903"
   y2="79.509323"
   gradientTransform="scale(1.1371471,0.87939373)"
   gradientUnits="userSpaceOnUse">
			<stop
   offset="0.005"
   stop-color="#922717"
   stop-opacity="1"
   id="stop9" />
			<stop
   offset="1"
   stop-color="#d83b01"
   stop-opacity="1"
   id="stop11" />
		</linearGradient>
		<linearGradient
   id="grad0-18"
   x1="-4.8997753e-06"
   y1="72.840811"
   x2="29.125504"
   y2="72.840811"
   gradientTransform="scale(1.0815265,0.92461903)"
   gradientUnits="userSpaceOnUse">
			<stop
   offset="0"
   stop-color="#ffc8a3"
   stop-opacity="1"
   id="stop14" />
			<stop
   offset="1"
   stop-color="#f8b48a"
   stop-opacity="1"
   id="stop16" />
		</linearGradient>
	</defs>
	<g
   id="g53"
   transform="translate(-6.4099,-6.4105602)">
		<title
   id="title20">Page-1</title>
		<g
   id="group21257-1"
   transform="translate(6.4099,-34.0157)">
			<title
   id="title22">Application Project Service Automation.21257</title>
			<g
   id="group21258-2">
				<title
   id="title24">g19</title>
				<g
   id="shape21259-3"
   transform="translate(0,-29.4938)">
					<title
   id="title26">path5</title>
					<path
   d="m 0,72.48 c 0,-1.41 1.13,-2.56 2.52,-2.56 h 26.46 c 1.39,0 2.52,1.15 2.52,2.56 v 19.24 c 0,1.42 -1.13,2.56 -2.52,2.56 H 2.52 C 1.13,94.28 0,93.14 0,91.72 Z"
   class="st1"
   id="path28"
   inkscape:connector-curvature="0"
   style="fill:url(#grad0-6);stroke:none;stroke-width:6.40990019;stroke-linecap:butt" />
				</g>
				<g
   id="shape21260-7">
					<title
   id="title31">path7</title>
					<path
   d="m 0,91.72 c 0,1.42 1.13,2.56 2.52,2.56 h 26.46 c 1.39,0 2.52,-1.14 2.52,-2.56 V 72.48 c 0,-1.41 -1.13,-2.56 -2.52,-2.56 H 2.52 C 1.13,69.92 0,71.07 0,72.48 Z"
   class="st2"
   id="path33"
   inkscape:connector-curvature="0"
   style="fill:url(#grad0-10);stroke:none;stroke-width:6.40990019;stroke-linecap:butt" />
				</g>
				<g
   id="shape21261-11"
   transform="translate(25.1969,-12.1822)">
					<title
   id="title36">rect9</title>
					<path
   d="m 0,91.72 a 2.51974,2.56474 -180 0 0 2.52,2.56 H 28.98 A 2.51974,2.56474 -180 0 0 31.5,91.72 V 69.92 A 2.51974,2.56474 -180 0 0 28.98,67.35 H 2.52 A 2.51974,2.56474 -180 0 0 0,69.92 Z"
   class="st3"
   id="path38"
   inkscape:connector-curvature="0"
   style="fill:#000000;fill-opacity:0.31999996;stroke:none;stroke-width:6.40990019;stroke-linecap:butt" />
				</g>
				<g
   id="shape21262-13"
   transform="translate(25.1969,-13.2209)">
					<title
   id="title41">rect13</title>
					<path
   d="m 0,91.72 a 2.51974,2.56474 -180 0 0 2.52,2.56 H 28.98 A 2.51974,2.56474 -180 0 0 31.5,91.72 V 69.92 A 2.51974,2.56474 -180 0 0 28.98,67.35 H 2.52 A 2.51974,2.56474 -180 0 0 0,69.92 Z"
   class="st4"
   id="path43"
   inkscape:connector-curvature="0"
   style="fill:#000000;fill-opacity:0.23999999;stroke:none;stroke-width:6.40990019;stroke-linecap:butt" />
				</g>
				<g
   id="shape21263-15"
   transform="translate(25.1969,-13.4646)">
					<title
   id="title46">rect17</title>
					<path
   d="m 0,91.72 a 2.51974,2.56474 -180 0 0 2.52,2.56 H 28.98 A 2.51974,2.56474 -180 0 0 31.5,91.72 V 69.92 A 2.51974,2.56474 -180 0 0 28.98,67.35 H 2.52 A 2.51974,2.56474 -180 0 0 0,69.92 Z"
   class="st5"
   id="path48"
   inkscape:connector-curvature="0"
   style="fill:url(#grad0-18);stroke:none;stroke-width:6.40990019;stroke-linecap:butt" />
				</g>
			</g>
		</g>
	</g>
</svg>

<?xml version="1.0" encoding="UTF-8" standalone="no"?>
<!DOCTYPE svg PUBLIC "-//W3C//DTD SVG 1.1//EN" "http://www.w3.org/Graphics/SVG/1.1/DTD/svg11.dtd">
<!-- Generated by Microsoft Visio, SVG Export Application Project Service Automation.svg Page-1 -->
<svg xmlns="http://www.w3.org/2000/svg" xmlns:xlink="http://www.w3.org/1999/xlink" xmlns:ev="http://www.w3.org/2001/xml-events"
		width="0.965454in" height="1.3095in" viewBox="0 0 69.5127 94.2839" xml:space="preserve" color-interpolation-filters="sRGB"
		class="st6">
	<style type="text/css">
	<![CDATA[
		.st1 {fill:url(#grad0-6);stroke:none;stroke-linecap:butt;stroke-width:6.4099}
		.st2 {fill:url(#grad0-10);stroke:none;stroke-linecap:butt;stroke-width:6.4099}
		.st3 {fill:#000000;fill-opacity:0.32;stroke:none;stroke-linecap:butt;stroke-width:6.4099}
		.st4 {fill:#000000;fill-opacity:0.24;stroke:none;stroke-linecap:butt;stroke-width:6.4099}
		.st5 {fill:url(#grad0-18);stroke:none;stroke-linecap:butt;stroke-width:6.4099}
		.st6 {fill:none;fill-rule:evenodd;font-size:12px;overflow:visible;stroke-linecap:square;stroke-miterlimit:3}
	]]>
	</style>

	<defs id="Patterns_And_Gradients">
		<linearGradient id="grad0-6" x1="0" y1="0" x2="1" y2="0" gradientTransform="rotate(-114.86629958954 0.5 0.5)">
			<stop offset="0" stop-color="#d83b01" stop-opacity="1"/>
			<stop offset="1" stop-color="#ed7e43" stop-opacity="1"/>
		</linearGradient>
		<linearGradient id="grad0-10" x1="0" y1="0" x2="1" y2="0" gradientTransform="rotate(-152.20509519499 0.5 0.5)">
			<stop offset="0.005" stop-color="#922717" stop-opacity="1"/>
			<stop offset="1" stop-color="#d83b01" stop-opacity="1"/>
		</linearGradient>
		<linearGradient id="grad0-18" x1="0" y1="0" x2="1" y2="0" gradientTransform="rotate(55.058526038421 0.5 0.5)">
			<stop offset="0" stop-color="#ffc8a3" stop-opacity="1"/>
			<stop offset="1" stop-color="#f8b48a" stop-opacity="1"/>
		</linearGradient>
	</defs>
	<g>
		<title>Page-1</title>
		<g id="group20782-1" transform="translate(6.4099,-34.0157)">
			<title>Application Project Service Automation.20782</title>
			<g id="group20783-2">
				<title>g19</title>
				<g id="shape20784-3" transform="translate(0,-29.4938)">
					<title>path5</title>
					<path d="M0 72.48 C0 71.07 1.13 69.92 2.52 69.92 L28.98 69.92 C30.37 69.92 31.5 71.07 31.5 72.48 L31.5 91.72
								 C31.5 93.14 30.37 94.28 28.98 94.28 L2.52 94.28 C1.13 94.28 0 93.14 0 91.72 L0 72.48 Z"
							class="st1"/>
				</g>
				<g id="shape20785-7">
					<title>path7</title>
					<path d="M0 91.72 C0 93.14 1.13 94.28 2.52 94.28 L28.98 94.28 C30.37 94.28 31.5 93.14 31.5 91.72 L31.5 72.48
								 C31.5 71.07 30.37 69.92 28.98 69.92 L2.52 69.92 C1.13 69.92 0 71.07 0 72.48 L0 91.72 Z"
							class="st2"/>
				</g>
				<g id="shape20786-11" transform="translate(25.1969,-12.1822)">
					<title>rect9</title>
					<path d="M0 91.72 A2.51974 2.56474 -180 0 0 2.52 94.28 L28.98 94.28 A2.51974 2.56474 -180 0 0 31.5 91.72 L31.5
								 69.92 A2.51974 2.56474 -180 0 0 28.98 67.35 L2.52 67.35 A2.51974 2.56474 -180 0 0 -0 69.92 L0 91.72
								 Z" class="st3"/>
				</g>
				<g id="shape20787-13" transform="translate(25.1969,-13.2209)">
					<title>rect13</title>
					<path d="M0 91.72 A2.51974 2.56474 -180 0 0 2.52 94.28 L28.98 94.28 A2.51974 2.56474 -180 0 0 31.5 91.72 L31.5
								 69.92 A2.51974 2.56474 -180 0 0 28.98 67.35 L2.52 67.35 A2.51974 2.56474 -180 0 0 -0 69.92 L0 91.72
								 Z" class="st4"/>
				</g>
				<g id="shape20788-15" transform="translate(25.1969,-13.4646)">
					<title>rect17</title>
					<path d="M0 91.72 A2.51974 2.56474 -180 0 0 2.52 94.28 L28.98 94.28 A2.51974 2.56474 -180 0 0 31.5 91.72 L31.5
								 69.92 A2.51974 2.56474 -180 0 0 28.98 67.35 L2.52 67.35 A2.51974 2.56474 -180 0 0 -0 69.92 L0 91.72
								 Z" class="st5"/>
				</g>
			</g>
		</g>
	</g>
</svg>
